X:1
T:Fifty Cents
M:4/4
L:1/4
K:F
 C| F F F F/2G/2| A A A B| c c F G| A z z A| B B B B| B A A A| A G G F|\
 G z z2| F F/2F/2 F G| A A A B| c c F G| A z z A| d d d d| d c z A|\
 G B A G| F z2||
